svgs/light/circle-x.svg

<svg xmlns="http://www.w3.org/2000/svg" viewBox="0 0 512 512"><!--! Font Awesome Pro 6.3.0 by @fontawesome - https://fontawesome.com License - https://fontawesome.com/license (Commercial License) Copyright 2023 Fonticons, Inc. --><path d="M256 0C114.6 0 0 114.6 0 256s114.6 256 256 256s256-114.6 256-256S397.4 0 256 0zM256 480c-123.5 0-224-100.5-224-224s100.5-224 224-224s224 100.5 224 224S379.5 480 256 480zM362.4 131.8c-6.688-5.75-16.8-4.938-22.55 1.75L256 231.4l-83.86-97.84C166.4 126.9 156.3 126.2 149.6 131.8c-6.719 5.75-7.5 15.88-1.734 22.56L234.9 256l-87.08 101.6c-5.766 6.688-4.984 16.81 1.734 22.56C152.6 382.8 156.3 384 160 384c4.5 0 8.984-1.906 12.14-5.594L256 280.6l83.86 97.84C343 382.1 347.5 384 352 384c3.688 0 7.391-1.281 10.41-3.844c6.719-5.75 7.5-15.88 1.734-22.56L277.1 256l87.08-101.6C369.9 147.7 369.1 137.6 362.4 131.8z"/></svg>

<svg xmlns="http://www.w3.org/2000/svg" viewBox="0 0 512 512"><!-- Font Awesome Pro 6.0.0-alpha2 by @fontawesome - https://fontawesome.com License - https://fontawesome.com/license (Commercial License) --><path d="M362.406 131.844C355.719 126.094 345.609 126.906 339.859 133.594L256 231.43L172.141 133.594C166.422 126.906 156.312 126.156 149.594 131.844C142.875 137.594 142.094 147.719 147.859 154.406L234.939 256L147.859 357.594C142.094 364.281 142.875 374.406 149.594 380.156C152.609 382.75 156.312 384 160 384C164.5 384 168.984 382.094 172.141 378.406L256 280.57L339.859 378.406C343.016 382.094 347.5 384 352 384C355.688 384 359.391 382.719 362.406 380.156C369.125 374.406 369.906 364.281 364.141 357.594L277.061 256L364.141 154.406C369.906 147.719 369.125 137.594 362.406 131.844ZM256 16C123.451 16 16 123.451 16 256S123.451 496 256 496S496 388.549 496 256S388.549 16 256 16ZM256 464C141.309 464 48 370.691 48 256S141.309 48 256 48S464 141.309 464 256S370.691 464 256 464Z"/></svg>
